packages/foundations/assets/icons/functional/images/human/shower_20.svg

<svg width="20" height="20" viewBox="0 0 20 20" fill="none" xmlns="http://www.w3.org/2000/svg">
<g clip-path="url(#clip0_185_1168)">
<path fill-rule="evenodd" clip-rule="evenodd" d="M8.50076 13.9998C9.82631 13.9998 10.9109 15.0314 10.9956 16.3356L11.0009 16.4999V16.9999C11.0009 17.5523 10.5531 18.0001 10.0008 18.0001C9.48786 18.0001 9.00724 17.6239 9.00063 16.9999C8.99887 16.8333 8.99887 16.6666 9.00063 16.4999C9.00063 16.2545 8.81907 16.0007 8.50076 16.0001C7.16801 15.9974 5.83467 15.9974 4.50076 16.0001C4.25536 16.0001 4.00528 16.1779 4.00088 16.4999C3.99861 16.6666 3.99861 16.8333 4.00088 16.9999C4.00088 17.5523 3.55311 18.0001 3.00076 18.0001C2.48786 18.0001 2.00716 17.5987 2.00063 16.9999C1.99881 16.8333 1.99881 16.6666 2.00063 16.4999C2.00063 15.1744 3.05381 14 4.50076 13.9998C5.83395 13.9981 7.16729 13.9981 8.50076 13.9998ZM6.52238 6.75C8.04076 6.75 9.25076 7.95994 9.2507 9.47831C9.26049 10.9962 8.04024 12.2358 6.52238 12.2499C4.99605 12.2394 3.76132 11.0046 3.75076 9.47831C3.76493 7.96049 5.00452 6.74027 6.52238 6.75ZM14.0819 10.0048C14.4854 9.91161 14.888 10.1633 14.9813 10.5669C15.0746 10.9703 14.8231 11.373 14.4196 11.4661C14.0161 11.5591 13.6135 11.3076 13.5202 10.904C13.4269 10.5004 13.6784 10.0978 14.0819 10.0048ZM16.8733 9.60153C17.2312 9.39352 17.6904 9.51514 17.8988 9.87318C18.1071 10.2312 17.986 10.6902 17.6282 10.8983C17.2703 11.1064 16.8113 10.9847 16.6028 10.6267C16.3944 10.2685 16.5154 9.80954 16.8733 9.60153ZM10.6025 9.87085C10.8105 9.51311 11.2694 9.39192 11.6274 9.6004C11.9856 9.80889 12.1072 10.268 11.8991 10.6257C11.6909 10.9836 11.2319 11.1048 10.8739 10.8963C10.5159 10.6878 10.3943 10.2288 10.6025 9.87085ZM14.0819 7.69606C14.4854 7.60303 14.8881 7.85476 14.9812 8.25817C15.0747 8.66175 14.8232 9.06431 14.4197 9.15734C14.0162 9.25054 13.6135 8.99881 13.5202 8.59523C13.4269 8.19182 13.6784 7.78926 14.0819 7.69606ZM11.3523 7.62259C11.5604 7.26468 12.0195 7.1435 12.3775 7.35197C12.7356 7.56045 12.8572 8.01952 12.6492 8.37742C12.441 8.73532 11.982 8.85634 11.624 8.64786C11.266 8.43955 11.1443 7.98032 11.3523 7.62259ZM16.1232 7.35165C16.4812 7.14347 16.9402 7.26509 17.1487 7.62313C17.3572 7.98116 17.236 8.44013 16.8783 8.64831C16.5204 8.85632 16.0613 8.73487 15.8528 8.37666C15.6443 8.01863 15.7655 7.55966 16.1232 7.35165ZM14.2508 1.99994C14.7636 1.99994 15.2506 2.42854 15.2506 2.99994V4.32394L15.6645 4.37476L16.6458 4.51051C17.1922 4.5906 17.5703 5.0985 17.4902 5.64495C17.4101 6.1914 16.9022 6.56946 16.3557 6.48937L15.0899 6.31942C14.8069 6.2731 14.5261 6.24994 14.2475 6.24994C13.9688 6.24994 13.6902 6.2731 13.4116 6.31942L12.1458 6.48937C11.5993 6.56946 11.0914 6.1914 11.0113 5.64495C10.9312 5.0985 11.3093 4.5906 11.8557 4.51051L12.837 4.37476L13.2506 4.32594L13.2508 2.99994C13.2508 2.44765 13.6985 1.99994 14.2508 1.99994Z" fill="#1A1C1F"/>
</g>
<defs>
<clipPath id="clip0_185_1168">
<rect width="20" height="20" fill="white"/>
</clipPath>
</defs>
</svg>

<svg xmlns="http://www.w3.org/2000/svg" width="20" height="20" fill="none"><g clip-path="url(#a)"><path fill="#1A1C1F" fill-rule="evenodd" d="M8.5 14a2.5 2.5 0 0 1 2.496 2.336L11 16.5v.5a1 1 0 0 1-1 1 .983.983 0 0 1-1-1 24 24 0 0 1 0-.5c0-.245-.182-.5-.5-.5a988 988 0 0 0-4 0 .49.49 0 0 0-.5.5q-.003.25 0 .5a1 1 0 1 1-2 0 23 23 0 0 1 0-.5C2 15.174 3.054 14 4.5 14q2-.003 4 0M6.523 6.75a2.714 2.714 0 0 1 2.729 2.728 2.754 2.754 0 0 1-2.729 2.772 2.79 2.79 0 0 1-2.771-2.772A2.754 2.754 0 0 1 6.522 6.75m7.56 3.255a.75.75 0 1 1 .337 1.461.75.75 0 0 1-.337-1.461m2.791-.403a.75.75 0 1 1 .754 1.298.75.75 0 0 1-.754-1.298m-6.27.269a.75.75 0 1 1 1.295.753.75.75 0 0 1-1.296-.753m3.479-2.175a.75.75 0 1 1 .337 1.462.75.75 0 0 1-.337-1.462m-2.73-.073a.75.75 0 1 1 1.296.753.75.75 0 0 1-1.296-.753m4.771-.271a.75.75 0 1 1 .754 1.297.75.75 0 0 1-.754-1.297M14.251 2c.513 0 1 .429 1 1v1.324l.414.05.98.137a1 1 0 1 1-.29 1.978l-1.265-.17a5.088 5.088 0 0 0-1.678 0l-1.266.17a1 1 0 0 1-.29-1.978l.981-.136.414-.05V3a1 1 0 0 1 1-1" clip-rule="evenodd"/></g><defs><clipPath id="a"><path fill="#fff" d="M0 0h20v20H0z"/></clipPath></defs></svg>
